X:1367
T:The Threepenny Bit
R:Reel
N:Collected by F. O'Neill
B:O'Neill's 1367
Z:Transcribed by Trish O'Neil
M:C|
L:1/8
K:G
AD 3DDD EDEG|AcBG AGEG|AD 3DDD EDEF|G2BAG EGG2|
AD 3DDD EDEG|AcBG AGEG|Tc2cATB2BG|ABAG EGG2||
Bddf 3efg eB|BAGB AGEG|Bd 3ddd efdB|G2BAG EGG2|
Bd 3ddd 3efg dB|cABG AGEG|Tc2cATB2BG|ABAG EGG2|]
